round/svg/text_rotate_vertical.svg

<svg xmlns="http://www.w3.org/2000/svg" width="24" height="24"><path fill="none" d="M0 0h24v24H0V0z"/><path fill="none" d="M0 0h24v24H0V0z"/><path fill="none" d="M0 0h24v24H0V0z"/><g fill="currentColor"><path d="M15 5c-.46 0-.87.27-1.05.69l-3.88 8.97c-.27.63.2 1.34.89 1.34.39 0 .74-.24.89-.6l.66-1.6h5l.66 1.6c.15.36.5.6.89.6.69 0 1.15-.71.88-1.34l-3.88-8.97C15.87 5.27 15.46 5 15 5zm-1.87 7L15 6.98 16.87 12h-3.74zm-6.78 7.64l1.79-1.79c.32-.31.1-.85-.35-.85H7V5c0-.55-.45-1-1-1s-1 .44-1 1v12h-.79c-.45 0-.67.54-.35.85l1.79 1.79c.19.2.51.2.7 0z"/></g></svg>

<?xml version="1.0" encoding="utf-8"?>
<!-- Generator: Adobe Illustrator 19.1.0, SVG Export Plug-In . SVG Version: 6.00 Build 0)  -->
<svg version="1.1" xmlns="http://www.w3.org/2000/svg" xmlns:xlink="http://www.w3.org/1999/xlink" x="0px" y="0px" width="24px"
	 height="24px" viewBox="0 0 24 24" enable-background="new 0 0 24 24" xml:space="preserve">
<g id="Bounding_Boxes">
	<g id="ui_x5F_spec_x5F_header_copy_3">
	</g>
	<path fill="none" d="M0,0h24v24H0V0z"/>
	<path fill="none" d="M0,0h24v24H0V0z"/>
	<path fill="none" d="M0,0h24v24H0V0z"/>
</g>
<g id="Rounded" fill="currentColor">
	<g id="ui_x5F_spec_x5F_header_copy_5">
	</g>
	<path d="M15,5L15,5c-0.46,0-0.87,0.27-1.05,0.69l-3.88,8.97C9.8,15.29,10.27,16,10.96,16h0c0.39,0,0.74-0.24,0.89-0.6l0.66-1.6h5
		l0.66,1.6c0.15,0.36,0.5,0.6,0.89,0.6h0c0.69,0,1.15-0.71,0.88-1.34l-3.88-8.97C15.87,5.27,15.46,5,15,5z M13.13,12L15,6.98
		L16.87,12H13.13z M6.35,19.64l1.79-1.79C8.46,17.54,8.24,17,7.79,17H7V5c0-0.55-0.45-1-1-1h0C5.45,4,5,4.44,5,5v12H4.21
		c-0.45,0-0.67,0.54-0.35,0.85l1.79,1.79C5.84,19.84,6.16,19.84,6.35,19.64z"/>
</g>
</svg>
